!!!XEN: War song
!!!AGN: War song
!!!COM: Anonymous
!!!CNT: Native American -- Ojibway
!!!TXO: Ojibway
!!!MLC: Lac du Flambeau reservation, northern Wisconsin, U.S.A.
!!!MRD: 1909-1912///
!!!MPN: E'niwub'e ("Sits farther along")
**kern
*MM108
*Imale
*k[f#c#g#]
*clefF4
*M3/4
*>[A,B,B]
*>A
=1
8.e
16e
4e
12c#
12B
12A
=2
*M2/4
8.B
16d
12Xc#
12XB
12XA
=3
*M3/4
8.A
16A
4..A
16A
=4
2.A
=5
8.e
16e
4e
12c#
12B
12A
=6
*M2/4
8.B
16d
12c#
12B
12A
=7
*M3/4
8.A
16A
4..A
16A
=8
2.A
*>B
=!:9
8.B
16B
16B
8.B
8.A
16Gn
=10
*M2/4
8.A
16A
16A
8.A
=11
8.F#
16E
4E
=12
8.A
16B
16A
8.A
=13
8.F#
16E
8.E
16D
=14
8.E
16E
4E
=15
*M3/4
12C#
12BB
12AA
12C#
12BB
12AA
12C#
12BB
12AA
=16
4AA
4.AA
8AA
=17
2AA
4AA
==:!!
*-
!!!OCL: Frances Densmore
!!!YOR: Chippewa [i.e., Ojibway] Music--II, Bulletin 53 of the Bureau of American Ethnology, Smitsonian Institution
!!!ONM: 93
!!!PPG: 195
!!!PUB: published
!!!PPR: Government Printing Office
!!!PPP: Washington, D.C.
!!!PDT: 1912///
!!!EST: missing clef changes, text, drum tempo, and drum part
!!!YEC: Copyright 1998 Paul von Hippel
!!!YEM: Rights to all derivate electronic formats reserved.
!!!EFL: 30/42
